assets/design.svg

<svg fill="#000000" xmlns="http://www.w3.org/2000/svg" viewBox="0 0 64 64" preserveAspectRatio="none"><path d="M 48.097656 3.828125 C 46.765625 3.828125 45.507813 4.351563 44.5625 5.296875 L 41.03125 8.828125 C 40.25 8.050781 38.980469 8.050781 38.203125 8.828125 L 32.546875 14.484375 C 31.765625 15.265625 31.765625 16.535156 32.546875 17.3125 L 32.59375 17.363281 L 31.046875 18.90625 L 16.859375 4.71875 C 15.722656 3.582031 13.75 3.582031 12.613281 4.71875 L 2.71875 14.613281 C 1.546875 15.785156 1.546875 17.6875 2.71875 18.859375 L 16.894531 33.035156 L 5.519531 44.398438 C 5.015625 44.902344 4.707031 45.570313 4.648438 46.28125 L 3.972656 54.675781 L 3.269531 59.597656 C 3.222656 59.910156 3.328125 60.222656 3.554688 60.449219 C 3.742188 60.636719 3.996094 60.738281 4.257813 60.738281 C 4.308594 60.738281 4.355469 60.738281 4.402344 60.730469 L 9.328125 60.027344 L 17.765625 59.40625 C 18.484375 59.351563 19.15625 59.046875 19.664063 58.535156 L 31.039063 47.183594 L 45.144531 61.285156 C 45.730469 61.871094 46.496094 62.160156 47.265625 62.160156 C 48.035156 62.160156 48.800781 61.871094 49.386719 61.285156 L 59.285156 51.386719 C 60.457031 50.214844 60.457031 48.3125 59.285156 47.140625 L 45.191406 33.046875 L 46.738281 31.5 C 47.109375 31.847656 47.589844 32.042969 48.097656 32.042969 C 48.632813 32.042969 49.136719 31.832031 49.515625 31.453125 L 55.171875 25.796875 C 55.953125 25.019531 55.953125 23.75 55.171875 22.96875 L 58.707031 19.4375 C 59.652344 18.492188 60.171875 17.238281 60.171875 15.902344 C 60.171875 14.5625 59.652344 13.308594 58.707031 12.363281 L 51.636719 5.296875 C 50.691406 4.351563 49.4375 3.828125 48.097656 3.828125 Z M 14.734375 5.84375 C 14.996094 5.84375 15.253906 5.941406 15.441406 6.132813 L 16.152344 6.835938 L 14.03125 8.957031 C 13.636719 9.347656 13.636719 9.980469 14.03125 10.371094 C 14.222656 10.566406 14.480469 10.664063 14.734375 10.664063 C 14.992188 10.664063 15.25 10.566406 15.441406 10.371094 L 17.5625 8.25 L 19.6875 10.371094 L 16.152344 13.90625 C 15.757813 14.300781 15.757813 14.929688 16.152344 15.324219 C 16.34375 15.515625 16.601563 15.613281 16.859375 15.613281 C 17.113281 15.613281 17.371094 15.515625 17.5625 15.324219 L 21.097656 11.785156 L 23.222656 13.90625 L 21.101563 16.03125 C 20.710938 16.421875 20.710938 17.050781 21.101563 17.441406 C 21.296875 17.636719 21.550781 17.734375 21.808594 17.734375 C 22.066406 17.734375 22.320313 17.636719 22.515625 17.441406 L 24.636719 15.324219 L 26.757813 17.441406 L 23.222656 20.980469 C 22.832031 21.371094 22.832031 22 23.222656 22.390625 C 23.417969 22.585938 23.671875 22.6875 23.929688 22.6875 C 24.1875 22.6875 24.441406 22.585938 24.636719 22.390625 L 28.171875 18.859375 L 29.632813 20.316406 L 18.3125 31.625 L 4.132813 17.441406 C 3.742188 17.054688 3.742188 16.417969 4.132813 16.03125 L 14.03125 6.132813 C 14.21875 5.941406 14.476563 5.84375 14.734375 5.84375 Z M 48.097656 5.859375 C 48.875 5.859375 49.65625 6.140625 50.222656 6.707031 L 57.292969 13.777344 C 57.859375 14.34375 58.171875 15.097656 58.171875 15.898438 C 58.171875 16.699219 57.859375 17.453125 57.292969 18.019531 L 53.757813 21.558594 L 42.441406 10.242188 L 45.980469 6.707031 C 46.546875 6.140625 47.324219 5.855469 48.097656 5.859375 Z M 39.613281 10.242188 L 46.6875 17.3125 L 53.050781 23.675781 L 53.757813 24.386719 L 52.34375 25.796875 C 51.953125 25.40625 51.320313 25.40625 50.929688 25.796875 L 49.515625 27.214844 C 49.125 27.605469 49.125 28.234375 49.515625 28.625 L 48.105469 30.042969 L 48.101563 30.042969 L 33.957031 15.898438 L 35.371094 14.484375 C 35.566406 14.679688 35.820313 14.777344 36.078125 14.777344 C 36.335938 14.777344 36.589844 14.679688 36.785156 14.484375 L 38.203125 13.070313 C 38.59375 12.679688 38.59375 12.046875 38.203125 11.65625 Z M 41.03125 14.898438 C 40.773438 14.898438 40.519531 14.996094 40.324219 15.191406 L 38.90625 16.605469 C 38.515625 16.996094 38.515625 17.628906 38.90625 18.019531 C 39.101563 18.214844 39.359375 18.3125 39.613281 18.3125 C 39.871094 18.3125 40.128906 18.214844 40.324219 18.019531 L 41.734375 16.605469 C 42.128906 16.214844 42.128906 15.582031 41.734375 15.191406 C 41.539063 14.996094 41.285156 14.898438 41.03125 14.898438 Z M 44.5625 18.4375 C 44.308594 18.4375 44.054688 18.53125 43.859375 18.730469 L 42.441406 20.140625 C 42.054688 20.535156 42.054688 21.167969 42.441406 21.558594 C 42.636719 21.75 42.894531 21.847656 43.152344 21.847656 C 43.40625 21.847656 43.660156 21.75 43.859375 21.558594 L 45.269531 20.140625 C 45.660156 19.75 45.660156 19.117188 45.269531 18.730469 C 45.074219 18.53125 44.820313 18.4375 44.5625 18.4375 Z M 34.011719 18.777344 L 45.324219 30.09375 L 19.027344 56.347656 L 18.074219 51.582031 L 34.664063 34.988281 C 35.054688 34.597656 35.054688 33.96875 34.664063 33.578125 C 34.273438 33.183594 33.644531 33.183594 33.25 33.578125 L 16.65625 50.171875 L 14.300781 49.699219 L 13.828125 47.339844 L 27.59375 33.578125 C 27.984375 33.183594 27.984375 32.554688 27.59375 32.160156 C 27.203125 31.769531 26.570313 31.769531 26.179688 32.160156 L 12.417969 45.925781 L 7.753906 44.996094 Z M 48.101563 21.96875 C 47.847656 21.96875 47.589844 22.066406 47.394531 22.265625 L 45.980469 23.675781 C 45.589844 24.070313 45.589844 24.699219 45.980469 25.09375 C 46.175781 25.285156 46.429688 25.386719 46.6875 25.386719 C 46.945313 25.386719 47.199219 25.285156 47.394531 25.09375 L 48.808594 23.675781 C 49.199219 23.285156 49.199219 22.652344 48.808594 22.265625 C 48.613281 22.066406 48.355469 21.96875 48.101563 21.96875 Z M 32.542969 26.214844 C 32.285156 26.214844 32.03125 26.308594 31.839844 26.503906 L 29.011719 29.335938 C 28.617188 29.726563 28.617188 30.355469 29.011719 30.75 C 29.203125 30.941406 29.460938 31.042969 29.71875 31.042969 C 29.972656 31.042969 30.230469 30.941406 30.421875 30.75 L 33.25 27.921875 C 33.644531 27.527344 33.644531 26.898438 33.25 26.503906 C 33.054688 26.308594 32.800781 26.214844 32.542969 26.214844 Z M 43.777344 34.464844 L 44.4375 35.121094 L 42.3125 37.242188 C 41.921875 37.632813 41.921875 38.265625 42.3125 38.65625 C 42.507813 38.851563 42.765625 38.949219 43.019531 38.949219 C 43.277344 38.949219 43.535156 38.851563 43.730469 38.65625 L 45.847656 36.535156 L 47.972656 38.65625 L 44.4375 42.191406 C 44.042969 42.585938 44.042969 43.214844 44.4375 43.609375 C 44.628906 43.800781 44.886719 43.902344 45.140625 43.902344 C 45.398438 43.902344 45.65625 43.800781 45.847656 43.609375 L 49.386719 40.074219 L 51.507813 42.191406 L 49.386719 44.3125 C 48.992188 44.707031 48.992188 45.335938 49.386719 45.730469 C 49.578125 45.921875 49.835938 46.019531 50.09375 46.019531 C 50.347656 46.019531 50.605469 45.921875 50.796875 45.730469 L 52.921875 43.609375 L 55.042969 45.730469 L 51.503906 49.265625 C 51.113281 49.65625 51.113281 50.285156 51.503906 50.675781 C 51.699219 50.871094 51.957031 50.96875 52.214844 50.96875 C 52.46875 50.96875 52.726563 50.871094 52.921875 50.675781 L 56.453125 47.140625 L 57.871094 48.558594 C 58.257813 48.945313 58.257813 49.578125 57.871094 49.96875 L 47.96875 59.871094 C 47.59375 60.246094 46.933594 60.246094 46.558594 59.871094 L 32.453125 45.765625 Z M 6.609375 46.804688 L 11.894531 47.859375 L 12.46875 50.746094 C 12.550781 51.140625 12.859375 51.449219 13.253906 51.527344 L 16.136719 52.105469 L 17.203125 57.441406 L 9.59375 58 L 6 54.410156 Z"/></svg>

<?xml version="1.0" encoding="UTF-8"?>
<svg fill="#000000" preserveAspectRatio="none" version="1.1" viewBox="0 0 64 64" xmlns="http://www.w3.org/2000/svg"><path d="m48.098 3.8281c-1.332 0-2.5898 0.52344-3.5352 1.4688l-3.5312 3.5312c-0.78125-0.77734-2.0508-0.77734-2.8281 0l-5.6562 5.6562c-0.78125 0.78125-0.78125 2.0508 0 2.8281l0.046875 0.050781-1.5469 1.543-14.188-14.188c-1.1367-1.1367-3.1094-1.1367-4.2461 0l-9.8945 9.8945c-1.1719 1.1719-1.1719 3.0742 0 4.2461l14.176 14.176-11.375 11.363c-0.50391 0.50391-0.8125 1.1719-0.87109 1.8828l-0.67578 8.3945-0.70312 4.9219c-0.046875 0.3125 0.058594 0.625 0.28516 0.85156 0.1875 0.1875 0.44141 0.28906 0.70312 0.28906 0.050781 0 0.097656 0 0.14453-0.007812l4.9258-0.70312 8.4375-0.62109c0.71875-0.054687 1.3906-0.35938 1.8984-0.87109l11.375-11.352 14.105 14.102c0.58594 0.58594 1.3516 0.875 2.1211 0.875s1.5352-0.28906 2.1211-0.875l9.8984-9.8984c1.1719-1.1719 1.1719-3.0742 0-4.2461l-14.094-14.094 1.5469-1.5469c0.37109 0.34766 0.85156 0.54297 1.3594 0.54297 0.53516 0 1.0391-0.21094 1.418-0.58984l5.6562-5.6562c0.78125-0.77734 0.78125-2.0469 0-2.8281l3.5352-3.5312c0.94531-0.94531 1.4648-2.1992 1.4648-3.5352 0-1.3398-0.51953-2.5938-1.4648-3.5391l-7.0703-7.0664c-0.94531-0.94531-2.1992-1.4688-3.5391-1.4688zm-33.363 2.0156c0.26172 0 0.51953 0.097656 0.70703 0.28906l0.71094 0.70312-2.1211 2.1211c-0.39453 0.39062-0.39453 1.0234 0 1.4141 0.19141 0.19531 0.44922 0.29297 0.70312 0.29297 0.25781 0 0.51562-0.097657 0.70703-0.29297l2.1211-2.1211 2.125 2.1211-3.5352 3.5352c-0.39453 0.39453-0.39453 1.0234 0 1.418 0.19141 0.19141 0.44922 0.28906 0.70703 0.28906 0.25391 0 0.51172-0.097656 0.70312-0.28906l3.5352-3.5391 2.125 2.1211-2.1211 2.125c-0.39062 0.39062-0.39062 1.0195 0 1.4102 0.19531 0.19531 0.44922 0.29297 0.70703 0.29297 0.25781 0 0.51172-0.097656 0.70703-0.29297l2.1211-2.1172 2.1211 2.1172-3.5352 3.5391c-0.39062 0.39062-0.39062 1.0195 0 1.4102 0.19531 0.19531 0.44922 0.29688 0.70703 0.29688 0.25781 0 0.51172-0.10156 0.70703-0.29688l3.5352-3.5312 1.4609 1.457-11.32 11.309-14.18-14.184c-0.39062-0.38672-0.39062-1.0234 0-1.4102l9.8984-9.8984c0.1875-0.19141 0.44531-0.28906 0.70312-0.28906zm33.363 0.015625c0.77734 0 1.5586 0.28125 2.125 0.84766l7.0703 7.0703c0.56641 0.56641 0.87891 1.3203 0.87891 2.1211 0 0.80078-0.3125 1.5547-0.87891 2.1211l-3.5352 3.5391-11.316-11.316 3.5391-3.5352c0.56641-0.56641 1.3438-0.85156 2.1172-0.84766zm-8.4844 4.3828 7.0742 7.0703 6.3633 6.3633 0.70703 0.71094-1.4141 1.4102c-0.39062-0.39062-1.0234-0.39062-1.4141 0l-1.4141 1.418c-0.39062 0.39062-0.39062 1.0195 0 1.4102l-1.4102 1.418h-0.003906l-14.145-14.145 1.4141-1.4141c0.19531 0.19531 0.44922 0.29297 0.70703 0.29297 0.25781 0 0.51172-0.097656 0.70703-0.29297l1.418-1.4141c0.39062-0.39062 0.39062-1.0234 0-1.4141zm1.418 4.6562c-0.25781 0-0.51172 0.097656-0.70703 0.29297l-1.418 1.4141c-0.39062 0.39062-0.39062 1.0234 0 1.4141 0.19531 0.19531 0.45312 0.29297 0.70703 0.29297 0.25781 0 0.51562-0.097656 0.71094-0.29297l1.4102-1.4141c0.39453-0.39062 0.39453-1.0234 0-1.4141-0.19531-0.19531-0.44922-0.29297-0.70312-0.29297zm3.5312 3.5391c-0.25391 0-0.50781 0.09375-0.70312 0.29297l-1.418 1.4102c-0.38672 0.39453-0.38672 1.0273 0 1.418 0.19531 0.19141 0.45312 0.28906 0.71094 0.28906 0.25391 0 0.50781-0.097656 0.70703-0.28906l1.4102-1.418c0.39062-0.39062 0.39062-1.0234 0-1.4102-0.19531-0.19922-0.44922-0.29297-0.70703-0.29297zm-10.551 0.33984 11.312 11.316-26.297 26.254-0.95312-4.7656 16.59-16.594c0.39062-0.39062 0.39062-1.0195 0-1.4102-0.39062-0.39453-1.0195-0.39453-1.4141 0l-16.594 16.594-2.3555-0.47266-0.47266-2.3594 13.766-13.762c0.39062-0.39453 0.39062-1.0234 0-1.418-0.39062-0.39062-1.0234-0.39062-1.4141 0l-13.762 13.766-4.6641-0.92969zm14.09 3.1914c-0.25391 0-0.51172 0.097656-0.70703 0.29688l-1.4141 1.4102c-0.39062 0.39453-0.39062 1.0234 0 1.418 0.19531 0.19141 0.44922 0.29297 0.70703 0.29297 0.25781 0 0.51172-0.10156 0.70703-0.29297l1.4141-1.418c0.39062-0.39062 0.39062-1.0234 0-1.4102-0.19531-0.19922-0.45312-0.29688-0.70703-0.29688zm-15.559 4.2461c-0.25781 0-0.51172 0.09375-0.70312 0.28906l-2.8281 2.832c-0.39453 0.39062-0.39453 1.0195 0 1.4141 0.19141 0.19141 0.44922 0.29297 0.70703 0.29297 0.25391 0 0.51172-0.10156 0.70312-0.29297l2.8281-2.8281c0.39453-0.39453 0.39453-1.0234 0-1.418-0.19531-0.19531-0.44922-0.28906-0.70703-0.28906zm11.234 8.25 0.66016 0.65625-2.125 2.1211c-0.39062 0.39062-0.39062 1.0234 0 1.4141 0.19531 0.19531 0.45312 0.29297 0.70703 0.29297 0.25781 0 0.51562-0.097656 0.71094-0.29297l2.1172-2.1211 2.125 2.1211-3.5352 3.5352c-0.39453 0.39453-0.39453 1.0234 0 1.418 0.19141 0.19141 0.44922 0.29297 0.70312 0.29297 0.25781 0 0.51562-0.10156 0.70703-0.29297l3.5391-3.5352 2.1211 2.1172-2.1211 2.1211c-0.39453 0.39453-0.39453 1.0234 0 1.418 0.19141 0.19141 0.44922 0.28906 0.70703 0.28906 0.25391 0 0.51172-0.097656 0.70312-0.28906l2.125-2.1211 2.1211 2.1211-3.5391 3.5352c-0.39062 0.39062-0.39062 1.0195 0 1.4102 0.19531 0.19531 0.45312 0.29297 0.71094 0.29297 0.25391 0 0.51172-0.097656 0.70703-0.29297l3.5312-3.5352 1.418 1.418c0.38672 0.38672 0.38672 1.0195 0 1.4102l-9.9023 9.9023c-0.375 0.375-1.0352 0.375-1.4102 0l-14.105-14.105zm-37.168 12.34 5.2852 1.0547 0.57422 2.8867c0.082031 0.39453 0.39062 0.70312 0.78516 0.78125l2.8828 0.57812 1.0664 5.3359-7.6094 0.55859-3.5938-3.5898z"/></svg>
